src/images/rocket-svgrepo-com.svg

<svg version="1.1" xmlns="http://www.w3.org/2000/svg" xmlns:xlink="http://www.w3.org/1999/xlink" width="800px" height="800px" viewBox="0,0,256,256"><g fill="#ffffff" fill-rule="none" stroke="none" stroke-width="1" stroke-linecap="butt" stroke-linejoin="miter" stroke-miterlimit="10" stroke-dasharray="" stroke-dashoffset="0" font-family="none" font-weight="none" font-size="none" text-anchor="none" style="mix-blend-mode: normal"><g transform="translate(-0.00052,-0.00098) scale(10.66667,10.66667)"><path d="M9.03429,5.96305l-2.54315,2.53551c-0.46745,0.46604 -0.89626,0.89354 -1.2349,1.28c-0.21747,0.24814 -0.43479,0.51984 -0.61887,0.81994l-0.02478,-0.0247c-0.04704,-0.0469 -0.07058,-0.0704 -0.0942,-0.0933c-0.44203,-0.4289 -0.96198,-0.76988 -1.53203,-1.00475c-0.03046,-0.01255 -0.06138,-0.0248 -0.12322,-0.0493l-0.37865,-0.15004c-0.51296,-0.20326 -0.64967,-0.86362 -0.25935,-1.25276c1.12021,-1.11681 2.46518,-2.45771 3.11427,-2.72703c0.57244,-0.23751 1.19082,-0.31654 1.78723,-0.2284c0.54647,0.08076 1.06342,0.36146 1.90765,0.89483z" fill-rule="nonzero"></path><path d="M13.3767,19.3132c0.2049,0.208 0.341,0.3549 0.4641,0.5119c0.1623,0.2071 0.3075,0.4272 0.434,0.6578c0.1424,0.2597 0.253,0.5371 0.4742,1.0919c0.18,0.4517 0.7782,0.5711 1.1256,0.2247l0.084,-0.0838c1.1202,-1.1169 2.4651,-2.4578 2.7352,-3.1049c0.2383,-0.5708 0.3175,-1.1873 0.2291,-1.7819c-0.081,-0.5448 -0.3624,-1.0601 -0.8973,-1.9016l-2.5516,2.544c-0.4781,0.4766 -0.9164,0.9137 -1.3128,1.256c-0.2376,0.2052 -0.4975,0.4103 -0.7845,0.5859z" fill-rule="nonzero"></path><path d="M14.4467,16.3769l5.8468,-5.8293c0.8421,-0.83949 1.2631,-1.25924 1.4848,-1.79302c0.2218,-0.53377 0.2218,-1.12739 0.2218,-2.31462v-0.56719c0,-1.82564 0,-2.73846 -0.5689,-3.30562c-0.5688,-0.56715 -1.4844,-0.56715 -3.3155,-0.56715h-0.5689c-1.1908,0 -1.7862,0 -2.3216,0.2211c-0.5354,0.2211 -0.9564,0.64085 -1.7984,1.48036l-5.84689,5.82932c-0.98392,0.98092 -1.594,1.58922 -1.83025,2.17672c-0.07464,0.1856 -0.11196,0.3692 -0.11196,0.5617c0,0.8021 0.6474,1.4476 1.94221,2.7385l0.17402,0.1735l2.03852,-2.0689c0.29075,-0.2951 0.76555,-0.2986 1.06065,-0.0079c0.295,0.2907 0.2985,0.7656 0.0078,1.0607l-2.0447,2.0752l0.13706,0.1366c1.29484,1.291 1.94224,1.9364 2.74674,1.9364c0.1777,0 0.3478,-0.0315 0.5189,-0.0945c0.6033,-0.2222 1.2191,-0.8362 2.2278,-1.8419zM17.1935,9.5312c-0.7585,0.7562 -1.9882,0.7562 -2.7467,0c-0.7585,-0.7562 -0.7585,-1.98225 0,-2.73846c0.7585,-0.75621 1.9882,-0.75621 2.7467,0c0.7585,0.75621 0.7585,1.98226 0,2.73846z" fill-rule="evenodd"></path></g></g></svg>

<?xml version="1.0" encoding="utf-8"?><!-- Uploaded to: SVG Repo, www.svgrepo.com, Generator: SVG Repo Mixer Tools -->
<svg width="800px" height="800px" viewBox="0 0 24 24" fill="none" xmlns="http://www.w3.org/2000/svg">
<path d="M9.03429 5.96305L6.49114 8.49856C6.02369 8.9646 5.59488 9.3921 5.25624 9.77856C5.03877 10.0267 4.82145 10.2984 4.63737 10.5985L4.61259 10.5738C4.56555 10.5269 4.54201 10.5034 4.51839 10.4805C4.07636 10.0516 3.55641 9.71062 2.98636 9.47575C2.9559 9.4632 2.92498 9.45095 2.86314 9.42645L2.48449 9.27641C1.97153 9.07315 1.83482 8.41279 2.22514 8.02365C3.34535 6.90684 4.69032 5.56594 5.33941 5.29662C5.91185 5.05911 6.53023 4.98008 7.12664 5.06822C7.67311 5.14898 8.19006 5.42968 9.03429 5.96305Z" fill="#cdf3f4"/>
<path d="M13.3767 19.3132C13.5816 19.5212 13.7177 19.6681 13.8408 19.8251C14.0031 20.0322 14.1483 20.2523 14.2748 20.4829C14.4172 20.7426 14.5278 21.02 14.749 21.5748C14.929 22.0265 15.5272 22.1459 15.8746 21.7995L15.9586 21.7157C17.0788 20.5988 18.4237 19.2579 18.6938 18.6108C18.9321 18.04 19.0113 17.4235 18.9229 16.8289C18.8419 16.2841 18.5605 15.7688 18.0256 14.9273L15.474 17.4713C14.9959 17.9479 14.5576 18.385 14.1612 18.7273C13.9236 18.9325 13.6637 19.1376 13.3767 19.3132Z" fill="#cdf3f4"/>
<path fill-rule="evenodd" clip-rule="evenodd" d="M14.4467 16.3769L20.2935 10.5476C21.1356 9.70811 21.5566 9.28836 21.7783 8.75458C22.0001 8.22081 22.0001 7.62719 22.0001 6.43996V5.87277C22.0001 4.04713 22.0001 3.13431 21.4312 2.56715C20.8624 2 19.9468 2 18.1157 2H17.5468C16.356 2 15.7606 2 15.2252 2.2211C14.6898 2.4422 14.2688 2.86195 13.4268 3.70146L7.57991 9.53078C6.59599 10.5117 5.98591 11.12 5.74966 11.7075C5.67502 11.8931 5.6377 12.0767 5.6377 12.2692C5.6377 13.0713 6.2851 13.7168 7.57991 15.0077L7.75393 15.1812L9.79245 13.1123C10.0832 12.8172 10.558 12.8137 10.8531 13.1044C11.1481 13.3951 11.1516 13.87 10.8609 14.1651L8.8162 16.2403L8.95326 16.3769C10.2481 17.6679 10.8955 18.3133 11.7 18.3133C11.8777 18.3133 12.0478 18.2818 12.2189 18.2188C12.8222 17.9966 13.438 17.3826 14.4467 16.3769ZM17.1935 9.5312C16.435 10.2874 15.2053 10.2874 14.4468 9.5312C13.6883 8.775 13.6883 7.54895 14.4468 6.79274C15.2053 6.03653 16.435 6.03653 17.1935 6.79274C17.952 7.54895 17.952 8.775 17.1935 9.5312Z" fill="#cdf3f4"/>
</svg>
